!!!OTL: Baby Sweet Dreams
!!!OTL@@CHN: 宝宝睡得甜
!!!ARE: China
**kern
*clefG2
*M2/4
*k[b-e-a-]
*MM40
{8e-
8f
8e-
8f
=1
8f
8g
8g
16f
16e-
=2
8g
8b-
4g}
=3
{8e-
16g
16b-
8g
16g
16f
=4
8g
8f
16f
16g
16f
16e-
=5
8e-
8f
4f}
=6
{8e-
8f
8e-
8f
=7
8g
8b-
16b-
16g
16f
16e-
=8
8g
8b-
4b-}
=9
{16e-
16g
16b-
16g
8g
16g
16f
=10
8g
8f
16f
16g
16f
16e-
=11
8e-
8f
4f}
==
*-
